public/images/back-vector.svg

<svg width="18" height="17" viewBox="0 0 18 17" fill="none" xmlns="http://www.w3.org/2000/svg">
<path d="M10.3468 15.8613L9.45497 16.7256C9.07734 17.0915 8.46669 17.0915 8.09307 16.7256L0.283227 9.16178C-0.0944091 8.79586 -0.0944091 8.20415 0.283227 7.84211L8.09307 0.274445C8.47071 -0.0914816 9.08135 -0.0914816 9.45497 0.274445L10.3468 1.13865C10.7285 1.50847 10.7205 2.11186 10.3308 2.47389L5.48979 6.94287H17.0358C17.5701 6.94287 18 7.3594 18 7.87715V9.12285C18 9.6406 17.5701 10.0571 17.0358 10.0571H5.48979L10.3308 14.5261C10.7245 14.8881 10.7325 15.4915 10.3468 15.8613Z" fill="#FF8C40"/>
</svg>

<svg width="18" height="17" fill="none" xmlns="http://www.w3.org/2000/svg"><path d="M10.347 15.861l-.892.865a.982.982 0 01-1.362 0L.283 9.162a.91.91 0 010-1.32L8.093.274a.982.982 0 011.362 0l.892.865a.915.915 0 01-.016 1.335L5.49 6.943h11.546c.534 0 .964.416.964.934v1.246c0 .518-.43.934-.964.934H5.49l4.84 4.47a.909.909 0 01.017 1.334z" fill="#FF8C40"/></svg>
